shared/images/iconfont/kb-iconfont-keybase-16.svg

<?xml version="1.0" encoding="UTF-8"?>
<svg width="16px" height="16px" viewBox="0 0 16 16" version="1.1" xmlns="http://www.w3.org/2000/svg" xmlns:xlink="http://www.w3.org/1999/xlink">
    <!-- Generator: sketchtool 49.3 (51167) - http://www.bohemiancoding.com/sketch -->
    <title>D22DB73D-CA62-4DF0-88BA-0058CC347B14</title>
    <desc>Created with sketchtool.</desc>
    <defs>
        <rect id="path-1" x="0" y="0" width="16" height="16"></rect>
    </defs>
    <g id="Colors,-icons" stroke="none" stroke-width="1" fill="none" fill-rule="evenodd">
        <g id="Icons-2" transform="translate(-277.000000, -187.000000)">
            <g id="kb-iconfont-keybase-16-copy" transform="translate(277.000000, 187.000000)">
                <g id="kb-iconfont-keybase-16">
                    <g id="Group-2" transform="translate(0.000000, 0.000000)">
                        <mask id="mask-2" fill="white">
                            <use xlink:href="#path-1"></use>
                        </mask>
                        <g id="Mask"></g>
                        <path d="M1.56808263,12.6092599 C1.56808263,13.8531045 1.93322591,15.0250714 2.56195061,16 C2.56195061,16 13.4253867,16 13.3399625,16 C13.9287683,14.8515786 14.0711651,13.5663844 14.0711651,12.6092599 C14.0711651,11.0627004 13.4020704,9.48757075 12.2354316,8.28780281 C11.0251995,7.04318252 9.45697364,6.35771869 7.81962387,6.35771869 C4.37250544,6.35771869 1.56808263,9.16218493 1.56808263,12.6092599 Z M1.44664593,16 C0.914454244,14.9954983 0.612853376,13.8229999 0.612853376,12.6092599 C0.612853376,8.63546284 3.84582677,5.40248944 7.81962387,5.40248944 C9.71718677,5.40248944 11.5286488,6.19068383 12.920331,7.62187776 C14.2587808,8.99836311 15.0263944,10.8162512 15.0263944,12.6092599 C15.0263944,13.8624682 14.8101891,15.0181165 14.3924009,16" id="Fill-3" fill="#000000" mask="url(#mask-2)"></path>
                    </g>
                    <path d="M4.71690364,5.88208066 C4.47074874,5.37495301 4.38215064,4.78634734 4.46014773,4.15903714 C4.62696549,2.81763475 5.45367298,1.67483321 6.41085611,0.351493349 C6.47546434,0.262222833 6.54072387,0.171953669 6.60663469,0.0805555979 L7.42639506,0.56285953 C7.02181205,1.42412896 7.06822751,1.74313211 7.08941623,1.81585979 C7.41471521,1.8060904 7.80483952,1.87525768 8.24889086,2.02258008 C8.9833319,2.26633722 9.57010317,2.78585167 9.90117695,3.48547026 C10.232077,4.18474149 10.261255,4.96868076 9.98337008,5.69283137 C9.97645807,5.71084278 9.96937035,5.72874653 9.96210954,5.74654129 C10.1828899,5.82278637 10.4022557,5.90923108 10.6196743,6.00581224 C11.7828396,6.52259126 12.8495268,7.39293536 13.6231322,8.45653971 C14.4289983,9.56443196 14.5369392,10.8100943 13.9047511,11.7074019 C13.2867178,12.5846063 12.0969798,12.9191971 10.8734614,12.5600743 C8.05123656,11.7313695 5.56408012,12.0797677 3.48128958,13.5954994 L2.30197223,14.4537295 L3.85998099,10.5793902 L4.52970994e-13,15.5091275 L4.52970994e-13,14.3064071 C4.52970994e-13,12.312887 4.52970994e-13,9.83189615 2.24157569,7.56756864 C2.9673753,6.83440798 3.80730678,6.26441834 4.71690364,5.88208066 Z M6.85330318,14.562682 C6.85330318,14.9194602 6.56408582,15.2086775 6.20730769,15.2086775 C5.85052957,15.2086775 5.5613122,14.9194602 5.5613122,14.562682 C5.5613122,14.2059039 5.85052957,13.9166865 6.20730769,13.9166865 C6.56408582,13.9166865 6.85330318,14.2059039 6.85330318,14.562682 Z M10.8919971,14.562682 C10.8919971,14.9194602 10.6027797,15.2086775 10.2460016,15.2086775 C9.88922347,15.2086775 9.6000061,14.9194602 9.6000061,14.562682 C9.6000061,14.2059039 9.88922347,13.9166865 10.2460016,13.9166865 C10.6027797,13.9166865 10.8919971,14.2059039 10.8919971,14.562682 Z M7.27740999,6.20897681 C7.21766693,6.13867855 7.13110171,6.10218099 7.04378971,6.10218099 C6.97682768,6.10218099 6.90943004,6.12363604 6.85317198,6.16774475 C6.72435099,6.26908691 6.70505896,6.45181444 6.81029388,6.57599004 L7.83831027,7.79107713 L7.3387711,8.18398025 C7.23938602,8.26212938 7.22463695,8.40308548 7.30578795,8.49879419 L7.41108511,8.62296979 C7.45508339,8.67480951 7.51905825,8.70165829 7.58353098,8.70165829 C7.63300571,8.70165829 7.6827916,8.68583669 7.72411389,8.65335446 L8.22962736,8.25565691 L8.64720651,8.75134052 L7.6252889,9.55476629 C7.52609051,9.63273563 7.51127921,9.77339207 7.59230574,9.86892099 L8.05282522,10.4121293 C8.09918833,10.4668457 8.16671045,10.4951928 8.23473042,10.4951928 C8.28688114,10.4951928 8.33934302,10.4785321 8.38290567,10.4443119 L9.39990693,9.64484155 L9.68630026,9.98482621 C9.7459811,10.0550645 9.83254631,10.0913823 9.91992055,10.0913823 C9.94269759,10.0913823 9.96547464,10.0889252 9.98787829,10.0839509 C10.0314409,10.0742422 10.0733856,10.0551844 10.110476,10.0259983 C10.239297,9.92465618 10.2586513,9.74198859 10.1533541,9.61775305 L7.27740999,6.20897681 Z" id="Combined-Shape" fill="#000000"></path>
                    <path d="M1.95856871,3.11183588 L1.87424386,4.42197244 C1.81586991,5.38798915 2.58033224,6.21778425 3.57797924,6.27663582 L4.31611728,6.32062467 C4.31611728,6.32062467 4.2011027,6.11923211 4.74014637,6.75507246 C5.46421221,7.60915961 7.92984014,5.42994498 7.1444663,4.5035376 C6.66260255,3.93514315 6.89197698,4.2714275 6.89197698,4.2714275 L6.94692816,3.41166724 C6.97791987,2.94349164 6.81717368,2.49215645 6.49418772,2.14066517 C6.17325543,1.79073208 5.72872967,1.58187494 5.24344171,1.5535279 L3.88522041,1.47250212 C3.8453917,1.47022477 3.8092347,1.46920595 3.77351332,1.46920595 C2.81507271,1.46920595 2.01787615,2.19070698 1.95856871,3.11183588 Z M3.8005844,2.78845192 L5.16054821,2.86953763 C5.27972318,2.87654948 5.3895633,2.92796968 5.46890956,3.01450906 C5.54856698,3.10116829 5.588209,3.21245888 5.58055442,3.32788466 L5.49691412,4.63688254 C5.49560724,4.65719892 5.48726811,4.67499822 5.48309854,4.69441564 C5.48309854,4.69441564 5.01302428,4.07419258 5.71136741,4.89792601 C6.02595693,5.26900134 5.5463263,5.62120415 5.22069984,5.2371054 C4.52124857,4.41205465 4.99805951,5.04021354 4.99805951,5.04021354 L3.66168177,4.96062609 C3.41511715,4.94606302 3.22642863,4.74098149 3.24074207,4.5035376 L3.32506692,3.19340104 C3.33975376,2.96470697 3.53678141,2.78767282 3.77351332,2.78767282 C3.78247478,2.78767282 3.79149847,2.78791254 3.8005844,2.78845192 Z" id="Fill-16" fill="#000000"></path>
                </g>
            </g>
        </g>
    </g>
</svg>

<svg xmlns="http://www.w3.org/2000/svg" xmlns:xlink="http://www.w3.org/1999/xlink" width="16" height="16" viewBox="0 0 16 16">
    <defs>
        <path id="a" d="M0 0h16v16H0z"/>
    </defs>
    <g fill="none" fill-rule="evenodd">
        <g>
            <mask id="b" fill="#fff">
                <use xlink:href="#a"/>
            </mask>
            <path fill="#000" d="M1.568 12.61c0 1.243.365 2.415.994 3.39H13.34c.589-1.148.731-2.434.731-3.39 0-1.547-.669-3.122-1.836-4.322-1.21-1.245-2.778-1.93-4.415-1.93a6.259 6.259 0 0 0-6.252 6.251zM1.447 16a7.275 7.275 0 0 1-.834-3.39c0-3.975 3.233-7.208 7.207-7.208 1.897 0 3.709.789 5.1 2.22 1.339 1.376 2.106 3.194 2.106 4.987 0 1.253-.216 2.41-.634 3.391" mask="url(#b)"/>
        </g>
        <path fill="#000" d="M4.717 5.882c-.246-.507-.335-1.096-.257-1.723.167-1.341.994-2.484 1.95-3.808l.197-.27.82.482c-.405.861-.359 1.18-.338 1.253.326-.01.716.06 1.16.207A2.781 2.781 0 0 1 9.9 3.485a2.784 2.784 0 0 1 .061 2.262c.22.076.44.162.658.259a7.602 7.602 0 0 1 3.003 2.45c.806 1.108.914 2.354.282 3.251-.618.878-1.808 1.212-3.032.853-2.822-.829-5.309-.48-7.392 1.035l-1.179.859 1.558-3.875L0 15.51v-1.203c0-1.993 0-4.474 2.242-6.738a7.671 7.671 0 0 1 2.475-1.686zm2.136 8.68a.646.646 0 1 1-1.292 0 .646.646 0 0 1 1.292 0zm4.039 0a.646.646 0 1 1-1.292 0 .646.646 0 0 1 1.292 0zM7.277 6.21a.308.308 0 0 0-.424-.041.283.283 0 0 0-.043.408l1.028 1.215-.5.393a.218.218 0 0 0-.032.315l.105.124a.227.227 0 0 0 .313.03l.506-.397.417.495-1.022.804a.218.218 0 0 0-.033.314l.46.543a.24.24 0 0 0 .33.032l1.018-.8.286.34a.306.306 0 0 0 .302.1.305.305 0 0 0 .122-.058.283.283 0 0 0 .043-.408L7.277 6.209z"/>
        <path fill="#000" d="M1.959 3.112l-.085 1.31c-.058.966.706 1.796 1.704 1.855l.738.044s-.115-.202.424.434c.724.854 3.19-1.325 2.404-2.251-.481-.569-.252-.233-.252-.233l.055-.86c.03-.468-.13-.919-.453-1.27a1.83 1.83 0 0 0-1.25-.587l-1.359-.081a1.93 1.93 0 0 0-.111-.004c-.959 0-1.756.722-1.815 1.643zM3.8 2.788l1.36.082c.119.007.229.058.308.145.08.086.12.197.112.313l-.084 1.309c-.001.02-.01.038-.014.057 0 0-.47-.62.228.204.315.371-.165.723-.49.34-.7-.826-.223-.198-.223-.198l-1.336-.08a.44.44 0 0 1-.421-.456l.084-1.31a.442.442 0 0 1 .476-.406z"/>
    </g>
</svg>
